assets/Taurus/Flat/taurus_flat.svg

<svg xmlns="http://www.w3.org/2000/svg" width="32" height="32" fill="none"><path fill="#8D65C5" d="M2 6a4 4 0 0 1 4-4h20a4 4 0 0 1 4 4v20a4 4 0 0 1-4 4H6a4 4 0 0 1-4-4V6Z"/><path fill="#fff" d="M24 6.5c-2.24 0-4.37.8-6.01 2.25-.55.48-1.26.75-1.99.75s-1.44-.27-1.99-.75C12.37 7.3 10.24 6.5 8 6.5c-.55 0-1 .45-1 1s.45 1 1 1c1.74 0 3.4.61 4.67 1.73A8.01 8.01 0 0 0 8 17.5c0 4.41 3.59 8 8 8s8-3.59 8-8a8.01 8.01 0 0 0-4.67-7.27C20.6 9.11 22.26 8.5 24 8.5c.55 0 1-.45 1-1s-.45-1-1-1Zm-2 11c0 3.31-2.69 6-6 6s-6-2.69-6-6 2.69-6 6-6 6 2.69 6 6Z"/></svg>

<svg width="32" height="32" viewBox="0 0 32 32" fill="none" xmlns="http://www.w3.org/2000/svg">
<path d="M2 6C2 3.79086 3.79086 2 6 2H26C28.2091 2 30 3.79086 30 6V26C30 28.2091 28.2091 30 26 30H6C3.79086 30 2 28.2091 2 26V6Z" fill="#8D65C5"/>
<path d="M24 6.5C21.76 6.5 19.63 7.3 17.99 8.75C17.44 9.23 16.73 9.5 16 9.5C15.27 9.5 14.56 9.23 14.01 8.75C12.37 7.3 10.24 6.5 8 6.5C7.45 6.5 7 6.95 7 7.5C7 8.05 7.45 8.5 8 8.5C9.74 8.5 11.4 9.11 12.67 10.23C9.92 11.49 8 14.28 8 17.5C8 21.91 11.59 25.5 16 25.5C20.41 25.5 24 21.91 24 17.5C24 14.28 22.08 11.49 19.33 10.23C20.6 9.11 22.26 8.5 24 8.5C24.55 8.5 25 8.05 25 7.5C25 6.95 24.55 6.5 24 6.5ZM22 17.5C22 20.81 19.31 23.5 16 23.5C12.69 23.5 10 20.81 10 17.5C10 14.19 12.69 11.5 16 11.5C19.31 11.5 22 14.19 22 17.5Z" fill="white"/>
</svg>
